X:1
T: Eliza's Reel
C:Gordy Euler
R:Reel
Q: 232
K:D
M:4/4
L:1/8
|:D2 DF AB AG|FA DA de fa|g2 ge fd cd|ed B^G A=G FE|
D2 DF AB AG|FA DA de fa|g2 ge fa fd|cA Bc d4:|
|:fd fa fd fa|gf ga bg eg|fd fa gf ed|ed B^G A2 e2|
fd fa ge gb|af bf ge de|fd fa gf ed|cA Bc d4:|
